packages/tokens/icons/insightPanel1/size32Px.svg

<svg viewBox="0 0 32 32" fill="none" xmlns="http://www.w3.org/2000/svg" width="1em" height="1em"><path d="M23.5 10.5V7.5C23.5 6.39543 22.6046 5.5 21.5 5.5L6.5 5.5C5.39543 5.5 4.5 6.39543 4.5 7.5L4.5 25.5C4.5 26.6046 5.39543 27.5 6.5 27.5H21.5C22.6046 27.5 23.5 26.6046 23.5 25.5V23.5" stroke="currentColor" stroke-linecap="round"/><circle cx="21.5" cy="16.5" r="5" stroke="currentColor"/><path d="M29.5 24.5044L25.2573 20.2618" stroke="currentColor" stroke-linecap="round" stroke-linejoin="round"/><line x1="11.5" y1="23.5" x2="20.5" y2="23.5" stroke="currentColor" stroke-linecap="round"/><circle cx="8.5" cy="23.5" r="1" stroke="currentColor"/><path d="M11.5 18.5H14.5" stroke="currentColor" stroke-linecap="round"/><circle cx="8.5" cy="18.5" r="1" stroke="currentColor"/><path d="M11.5 13.5H15.5" stroke="currentColor" stroke-linecap="round"/><circle cx="8.5" cy="13.5" r="1" stroke="currentColor"/><rect x="7.5" y="7.5" width="13" height="2" rx="1" stroke="currentColor"/></svg>

<svg xmlns="http://www.w3.org/2000/svg" fill="none" viewBox="0 0 32 32" width="1em" height="1em"><path stroke="currentColor" stroke-linecap="round" d="M23.5 10.5v-3a2 2 0 0 0-2-2h-15a2 2 0 0 0-2 2v18a2 2 0 0 0 2 2h15a2 2 0 0 0 2-2v-2"/><circle cx="21.5" cy="16.5" r="5" stroke="currentColor"/><path stroke="currentColor" stroke-linecap="round" stroke-linejoin="round" d="m29.5 24.504-4.243-4.242"/><path stroke="currentColor" stroke-linecap="round" d="M11.5 23.5h9"/><circle cx="8.5" cy="23.5" r="1" stroke="currentColor"/><path stroke="currentColor" stroke-linecap="round" d="M11.5 18.5h3"/><circle cx="8.5" cy="18.5" r="1" stroke="currentColor"/><path stroke="currentColor" stroke-linecap="round" d="M11.5 13.5h4"/><circle cx="8.5" cy="13.5" r="1" stroke="currentColor"/><rect width="13" height="2" x="7.5" y="7.5" stroke="currentColor" rx="1"/></svg>
